dist/img/home/about/4.svg

<svg width="30" height="28" viewBox="0 0 30 28" fill="none" xmlns="http://www.w3.org/2000/svg">
<path d="M11.5754 18.4185C11.5754 16.0218 9.62566 14.0718 7.22906 14.0718C4.83252 14.0718 2.8827 16.0217 2.8827 18.4185C2.8827 20.8154 4.83246 22.7653 7.22906 22.7653C9.6256 22.7653 11.5754 20.8153 11.5754 18.4185ZM4.05457 18.4185C4.05457 16.6679 5.47863 15.2436 7.22906 15.2436C8.97943 15.2436 10.4035 16.6679 10.4035 18.4185C10.4035 20.1692 8.97943 21.5934 7.22906 21.5934C5.47863 21.5934 4.05457 20.1691 4.05457 18.4185Z" fill="#E0191C"/>
<path d="M24.4954 6.68092C24.4954 4.45547 22.685 2.64486 20.4598 2.64486C18.2345 2.64486 16.4241 4.45541 16.4241 6.68092C16.4241 8.90637 18.2345 10.717 20.4598 10.717C22.685 10.717 24.4954 8.90637 24.4954 6.68092ZM17.596 6.68092C17.596 5.10158 18.8807 3.81674 20.4598 3.81674C22.0389 3.81674 23.3235 5.10158 23.3235 6.68092C23.3235 8.26025 22.0389 9.5451 20.4598 9.5451C18.8806 9.5451 17.596 8.2602 17.596 6.68092Z" fill="#E0191C"/>
<path d="M18.9827 19.0045H27.6004C28.9235 19.0045 30 17.9279 30 16.6046C30 15.2813 28.9235 14.2048 27.6004 14.2048H21.534L22.2295 13.1246C23.5774 12.7542 24.7933 11.9558 25.6737 10.8578C26.6192 9.67869 27.1399 8.19533 27.1399 6.68092C27.1399 2.99701 24.1431 0 20.4597 0C16.7763 0 13.7796 2.99701 13.7796 6.68092C13.7796 8.19533 14.3003 9.67869 15.2459 10.8579C16.1262 11.9557 17.3421 12.7542 18.6899 13.1246L19.9628 15.1013C20.0679 15.2704 20.2577 15.3774 20.4597 15.3766H27.6003C28.2773 15.3766 28.8281 15.9275 28.8281 16.6046C28.8281 17.2818 28.2773 17.8326 27.6003 17.8326H18.9827C17.6229 17.8326 16.5166 18.939 16.5166 20.299C16.5166 20.9578 16.7731 21.5771 17.2388 22.0429C17.7045 22.5088 18.3238 22.7654 18.9825 22.7653C20.7009 22.7653 23.2566 22.7652 25.1562 22.765C25.6783 22.7649 26.1687 22.9685 26.5369 23.338C26.9064 23.7088 27.1098 24.2037 27.1098 24.7315V24.7952C27.1098 25.297 26.9144 25.7688 26.5596 26.1236C26.2048 26.4784 25.7331 26.6738 25.2315 26.6737L8.3032 26.6728L9.12469 25.3969C10.5911 24.9985 11.9143 24.132 12.8712 22.9386C13.8945 21.6626 14.458 20.0573 14.458 18.4185C14.458 14.432 11.2151 11.1887 7.229 11.1887C3.24293 11.1887 0 14.432 0 18.4185C0 20.0573 0.563496 21.6626 1.58678 22.9386C2.54373 24.132 3.86701 24.9985 5.33332 25.3969L6.73219 27.5694C6.83719 27.7382 7.02656 27.8453 7.22895 27.8446L25.2315 27.8457C26.0462 27.8457 26.8121 27.5284 27.3882 26.9523C27.9643 26.3762 28.2816 25.6102 28.2816 24.7953V24.7315C28.2816 23.8915 27.9568 23.1029 27.367 22.5109C26.7773 21.919 25.9922 21.5931 25.1564 21.5931H25.1561C23.2564 21.5934 20.7009 21.5934 18.9824 21.5935C18.6368 21.5935 18.3118 21.4589 18.0674 21.2145C17.823 20.97 17.6885 20.6449 17.6885 20.299C17.6885 19.5851 18.2691 19.0045 18.9827 19.0045ZM19.1923 12.0435C16.6954 11.4557 14.9514 9.25049 14.9514 6.68092C14.9514 3.64324 17.4224 1.17187 20.4598 1.17187C23.4971 1.17187 25.9681 3.64324 25.9681 6.68092C25.9681 9.25055 24.2242 11.4557 21.7272 12.0435C21.5796 12.0782 21.4511 12.169 21.3689 12.2966L20.4598 13.7084L19.5506 12.2966C19.4685 12.169 19.34 12.0783 19.1923 12.0435ZM5.83541 24.3155C3.08959 23.669 1.17188 21.2441 1.17188 18.4185C1.17188 15.0782 3.8891 12.3606 7.22906 12.3606C10.569 12.3606 13.2862 15.0782 13.2862 18.4185C13.2862 21.2442 11.3685 23.6691 8.62266 24.3155C8.47494 24.3503 8.34645 24.441 8.2643 24.5686L7.22906 26.1763L6.19371 24.5685C6.11162 24.441 5.98307 24.3502 5.83541 24.3155Z" fill="#E0191C"/>
</svg>

<svg width="30" height="28" viewBox="0 0 30 28" fill="none" xmlns="http://www.w3.org/2000/svg"><path d="M11.575 18.419a4.351 4.351 0 00-4.346-4.347 4.351 4.351 0 00-4.346 4.347 4.351 4.351 0 004.346 4.346 4.352 4.352 0 004.346-4.346zm-7.52 0a3.178 3.178 0 013.174-3.175 3.178 3.178 0 013.174 3.175 3.178 3.178 0 01-3.174 3.174 3.178 3.178 0 01-3.174-3.174zM24.495 6.68a4.04 4.04 0 00-4.035-4.035 4.04 4.04 0 00-4.036 4.036 4.04 4.04 0 004.036 4.036 4.04 4.04 0 004.035-4.036zm-6.899 0a2.867 2.867 0 012.864-2.863 2.867 2.867 0 012.863 2.864 2.867 2.867 0 01-2.863 2.864 2.867 2.867 0 01-2.864-2.864z" fill="#E0191C"/><path d="M18.983 19.005H27.6c1.323 0 2.4-1.077 2.4-2.4 0-1.324-1.076-2.4-2.4-2.4h-6.066l.696-1.08a6.715 6.715 0 003.444-2.267A6.7 6.7 0 0027.14 6.68 6.688 6.688 0 0020.46 0a6.688 6.688 0 00-6.68 6.68 6.7 6.7 0 001.466 4.178 6.716 6.716 0 003.444 2.267l1.273 1.976c.105.17.295.276.497.276h7.14a1.23 1.23 0 010 2.456h-8.617a2.469 2.469 0 00-2.466 2.466c0 .659.256 1.278.722 1.744a2.449 2.449 0 001.744.722h6.173a1.96 1.96 0 011.954 1.966v.064c0 .502-.196.974-.55 1.329a1.87 1.87 0 01-1.328.55l-16.929-.001.822-1.276a7.266 7.266 0 003.746-2.458 7.25 7.25 0 001.587-4.52c0-3.987-3.243-7.23-7.229-7.23S0 14.432 0 18.419a7.25 7.25 0 001.587 4.52 7.266 7.266 0 003.746 2.458l1.4 2.172a.587.587 0 00.496.276H25.23a3.03 3.03 0 002.157-.893 3.03 3.03 0 00.894-2.157v-.064c0-.84-.325-1.628-.915-2.22a3.1 3.1 0 00-2.21-.918h-6.175c-.345 0-.67-.134-.915-.378a1.296 1.296 0 01.915-2.21zm.21-6.961A5.485 5.485 0 0114.95 6.68a5.515 5.515 0 015.509-5.51 5.515 5.515 0 015.508 5.51 5.485 5.485 0 01-4.24 5.362.586.586 0 00-.36.254l-.908 1.411-.91-1.411a.586.586 0 00-.358-.254zM5.834 24.315a6.032 6.032 0 01-4.663-5.896 6.064 6.064 0 016.057-6.058 6.064 6.064 0 016.057 6.058 6.032 6.032 0 01-4.663 5.896.586.586 0 00-.359.254L7.23 26.176 6.194 24.57a.586.586 0 00-.359-.253z" fill="#E0191C"/></svg>
